images/next.svg

<?xml version="1.0" encoding="UTF-8" standalone="no"?><!DOCTYPE svg PUBLIC "-//W3C//DTD SVG 1.1//EN" "http://www.w3.org/Graphics/SVG/1.1/DTD/svg11.dtd"><svg width="100%" height="100%" viewBox="0 0 2434 1738" version="1.1" xmlns="http://www.w3.org/2000/svg" xmlns:xlink="http://www.w3.org/1999/xlink" xml:space="preserve" xmlns:serif="http://www.serif.com/" style="fill-rule:evenodd;clip-rule:evenodd;stroke-linejoin:round;stroke-miterlimit:2;"><rect id="Artboard1" x="0" y="0" width="2430.554" height="1736.112" style="fill:none;"/><path d="M872.492,374.425l-0,-44.563c0,-50.592 26.196,-97.571 69.221,-124.167c43.038,-26.596 96.771,-29.008 142.013,-6.387l1076.388,538.196c49.446,24.721 80.675,75.258 80.675,130.554c0,55.279 -31.233,105.833 -80.675,130.554l-1076.388,538.196c-45.242,22.621 -98.975,20.208 -142.013,-6.388c-43.038,-26.596 -69.221,-73.575 -69.221,-124.167l0,-44.554l689.121,-344.554c56.463,-28.229 92.129,-85.963 92.129,-149.083c0,-63.142 -35.667,-120.854 -92.129,-149.083l-689.121,-344.554Z" style="fill:#c8c8be;"/><path d="M1475.967,998.613l-1076.388,538.196c-45.242,22.621 -98.975,20.208 -142.012,-6.388c-43.038,-26.596 -69.221,-73.575 -69.221,-124.167l0,-1076.388c0,-50.592 26.2,-97.571 69.221,-124.167c43.038,-26.596 96.771,-29.008 142.012,-6.388l1076.388,538.196c49.446,24.721 80.679,75.258 80.679,130.554c0,55.279 -31.233,105.833 -80.679,130.554l0,-0.004Z" style="fill:#c8c8be;"/></svg>

<?xml version="1.0" encoding="UTF-8" standalone="no"?>
<!DOCTYPE svg PUBLIC "-//W3C//DTD SVG 1.1//EN" "http://www.w3.org/Graphics/SVG/1.1/DTD/svg11.dtd">
<svg width="100%" height="100%" viewBox="0 0 2434 1738" version="1.1" xmlns="http://www.w3.org/2000/svg" xmlns:xlink="http://www.w3.org/1999/xlink" xml:space="preserve" xmlns:serif="http://www.serif.com/" style="fill-rule:evenodd;clip-rule:evenodd;stroke-linejoin:round;stroke-miterlimit:2;">
    <g transform="matrix(1,0,0,1,11.654,0.469899)">
        <path d="M1475.967,998.613L399.579,1536.809C354.337,1559.43 300.604,1557.017 257.567,1530.421C214.529,1503.825 188.346,1456.846 188.346,1406.254L188.346,329.866C188.346,279.274 214.546,232.295 257.567,205.699C300.605,179.103 354.338,176.691 399.579,199.311L1475.967,737.507C1525.413,762.228 1556.646,812.765 1556.646,868.061C1556.646,923.34 1525.413,973.894 1475.967,998.615L1475.967,998.611L1475.967,998.613Z" style="fill:rgb(200,200,190);"/>
    </g>
    <g transform="matrix(1.339674,0,0,1.026075,-432.849643,-39.064298)">
        <path d="M1598.54,327.313L1598.54,1443.579C1598.54,1503.539 1561.255,1552.219 1515.331,1552.219L1472.186,1552.219C1426.262,1552.219 1388.978,1503.539 1388.978,1443.579L1388.978,327.313C1388.978,267.353 1426.262,218.674 1472.186,218.674L1515.331,218.674C1561.255,218.674 1598.54,267.353 1598.54,327.313Z" style="fill:rgb(200,200,190);"/>
    </g>
</svg>
